X:1
T:Humours of Rockstown -- Reel
R:reel
B:Ryan's Mammoth Collection
N: 217
Z: Contributed by Ray Davies,  ray:davies99.freeserve.co.uk
M:C|
L:1/8
K:Em
vBE(Ec) d2(cB) | A2((3FED) FAA2 | BEEF GABc   | dBAc (BE)E2 |
 BE(Ec) d2(cB) | A2((3FED) FAA2 | BE(EF) GABc | dBAc (BE)E2 :|
|:e3 f gfge | defg afd2 | e^def gfec | dBAc (BE)E2 |
e2(ef) gfge | defg afdf | g2(fd) ecdA | ((3Bcd)(Ac) BAFA:|
